static/icons/compliance.svg

<svg width="126" height="100" viewBox="0 0 126 100" fill="none" xmlns="http://www.w3.org/2000/svg">
<path d="M26.9091 22.9223V81.7282H116.303V22.9223C116.303 20.7621 114.545 19.0819 112.424 19.0819H30.7879C28.6667 19.0819 26.9091 20.8221 26.9091 22.9223Z" fill="#EBECE9"/>
<path d="M116.242 82.5082H26.9091C26.4848 82.5082 26.1212 82.1482 26.1212 81.7282V22.9223C26.1212 20.342 28.2424 18.3018 30.7878 18.3018H112.364C114.97 18.3018 117.03 20.402 117.03 22.9223V81.7282C117.03 82.1482 116.667 82.5082 116.242 82.5082ZM27.6969 80.9481H115.515V22.9223C115.515 21.1821 114.121 19.802 112.364 19.802H30.7878C29.0303 19.802 27.6363 21.1821 27.6363 22.9223L27.6969 80.9481Z" fill="#323C6B"/>
<path d="M112.364 19.0819H30.7879C28.6061 19.0819 26.9091 20.8221 26.9091 22.9823V24.0024H107.576C109.758 24.0024 111.455 25.7426 111.455 27.8428V81.7282H116.242V22.9223C116.242 20.8221 114.545 19.0819 112.364 19.0819Z" fill="#C1C1C1"/>
<path d="M18.9091 81.7281C19.4545 86.8287 23.5151 90.8491 28.606 91.3891C29.3333 91.4491 30.0606 91.5091 30.7878 91.5091H112.242C112.97 91.5091 113.697 91.4491 114.424 91.3891C119.576 90.8491 123.636 86.7687 124.121 81.7281H18.9091Z" fill="#C1C1C1"/>
<path d="M112.303 92.2892H30.8485C30.1212 92.2892 29.3333 92.2292 28.606 92.1692C23.0909 91.5691 18.7272 87.2487 18.1818 81.7881C18.1212 81.3681 18.4242 81.0081 18.8485 80.9481C18.9091 80.9481 18.9091 80.9481 18.9697 80.9481H124.242C124.667 80.9481 125.03 81.3081 125.03 81.7281C125.03 81.7881 125.03 81.7881 125.03 81.8481C124.424 87.3087 120.121 91.6291 114.606 92.2292C113.818 92.2292 113.091 92.2892 112.303 92.2892ZM19.8182 82.5082C20.6666 86.8887 24.2424 90.189 28.7272 90.669C29.4545 90.7291 30.1212 90.7891 30.8485 90.7891H112.303C113.03 90.7891 113.697 90.7291 114.424 90.669C118.848 90.189 122.485 86.8887 123.333 82.5082H19.8182Z" fill="#244583"/>
<path d="M116.242 82.5082H26.9091C26.4848 82.5082 26.1212 82.1482 26.1212 81.7282V22.9223C26.1212 20.342 28.2424 18.3018 30.7878 18.3018H112.364C114.97 18.3018 117.03 20.402 117.03 22.9223V81.7282C117.03 82.1482 116.667 82.5082 116.242 82.5082ZM27.6969 80.9481H115.515V22.9223C115.515 21.1821 114.121 19.802 112.364 19.802H30.7878C29.0303 19.802 27.6363 21.1821 27.6363 22.9223L27.6969 80.9481Z" fill="#244583"/>
<path d="M121.151 31.6832C121.576 31.6832 121.939 31.3231 121.939 30.9031V27.4827C121.939 27.0627 121.576 26.7027 121.151 26.7027C120.727 26.7027 120.364 27.0627 120.364 27.4827V30.9031C120.364 31.3831 120.727 31.6832 121.151 31.6832Z" fill="#244583"/>
<path d="M121.151 24.9625C121.576 24.9625 121.939 24.6025 121.939 24.1824V22.9223C121.939 17.8218 117.758 13.6814 112.606 13.6814C112.182 13.6814 111.818 14.0414 111.818 14.4614C111.818 14.8815 112.182 15.2415 112.606 15.2415C116.909 15.2415 120.364 18.6619 120.364 22.9223V24.1824C120.364 24.6025 120.727 24.9625 121.151 24.9625Z" fill="#244583"/>
<path d="M105.939 96.8497H101.818C101.394 96.8497 101.03 96.4897 101.03 96.0696C101.03 95.6496 101.394 95.2896 101.818 95.2896H105.939C106.364 95.2896 106.727 95.6496 106.727 96.0696C106.727 96.4897 106.364 96.8497 105.939 96.8497Z" fill="#244583"/>
<path d="M98.4848 96.8497H83.6363C83.2121 96.8497 82.8484 96.4897 82.8484 96.0696C82.8484 95.6496 83.2121 95.2896 83.6363 95.2896H98.4848C98.9091 95.2896 99.2727 95.6496 99.2727 96.0696C99.2727 96.4897 98.9091 96.8497 98.4848 96.8497Z" fill="#244583"/>
<path d="M32.0606 55.8656C31.4545 55.8656 30.9697 55.3855 30.9697 54.7855V52.3252C30.9697 51.7252 31.4545 51.2451 32.0606 51.2451C32.6666 51.2451 33.1515 51.7252 33.1515 52.3252V54.7855C33.1515 55.3855 32.6666 55.8656 32.0606 55.8656Z" fill="white"/>
<path d="M32.0606 72.0072C31.4545 72.0072 30.9697 71.5271 30.9697 70.9271V58.3858C30.9697 57.7858 31.4545 57.3057 32.0606 57.3057C32.6666 57.3057 33.1515 57.7858 33.1515 58.3858V70.8671C33.1515 71.4671 32.6666 72.0072 32.0606 72.0072Z" fill="white"/>
<path d="M70.3636 31.1431C68.1818 32.5833 62.9697 35.5236 56.6667 36.8437C55.697 37.0237 54.9697 37.9238 54.9697 38.8839V55.7456C54.9697 57.5458 55.2121 59.2859 55.7576 60.9661C56.9091 64.6265 59.2121 67.8668 62.3636 70.147L70.7272 76.1476C71.1515 76.4476 71.7576 76.4476 72.2424 76.1476L80.606 70.147C83.7575 67.8668 86.0606 64.6865 87.2121 60.9661C87.7575 59.2859 88 57.4857 88 55.7456V38.8839C88 37.8638 87.2727 37.0237 86.303 36.8437C80 35.5236 74.8485 32.5833 72.606 31.1431C71.9394 30.6631 71.0303 30.6631 70.3636 31.1431Z" fill="#9FEFDE"/>
<path d="M86.7273 36.4236C86.5454 36.3636 86.3636 36.3636 86.1818 36.3036C86.4848 36.6637 86.6666 37.1437 86.6666 37.6838V55.0255C86.6666 56.8257 86.3636 58.6859 85.8182 60.426C84.606 64.2064 82.1212 67.5067 78.7879 69.847L69.8788 76.0276C69.6969 76.1476 69.4545 76.2676 69.2121 76.2676L70.1212 76.9277C70.606 77.2877 71.2121 77.2877 71.6969 76.9277L80.606 70.7471C83.9394 68.4068 86.4242 65.1065 87.6363 61.3261C88.1818 59.5859 88.4848 57.7858 88.4848 55.9256V38.5238C88.5454 37.5037 87.7576 36.6036 86.7273 36.4236Z" fill="#24C4A1"/>
<path d="M86.7273 35.9436C80.3031 34.6235 74.9697 31.5031 72.9697 30.183C72.0606 29.583 70.8485 29.583 69.9394 30.183C67.9394 31.4431 62.6061 34.5635 56.1818 35.9436C54.9091 36.1836 53.9394 37.3237 53.9394 38.6439V55.8056C53.9394 57.6658 54.2424 59.5259 54.7879 61.3261C56 65.1665 58.4849 68.5869 61.7576 70.9871L70.303 77.1077C70.6061 77.3477 71.0303 77.4677 71.394 77.4677C71.7576 77.4677 72.1818 77.3477 72.4849 77.1077L81.0303 70.9871C84.303 68.6469 86.7879 65.1665 88 61.3261C88.5455 59.5259 88.8485 57.6658 88.8485 55.8056V38.5839C88.9697 37.3237 88.0606 36.1836 86.7273 35.9436ZM87.8182 38.5839V55.8056C87.8182 57.5458 87.5758 59.2859 87.0303 60.9661C85.8788 64.5665 83.5758 67.8068 80.4849 70.027L71.9394 76.1476C71.697 76.3276 71.3334 76.3276 71.0909 76.1476L62.5455 70.027C59.4546 67.8068 57.1515 64.5665 56 60.9661C55.4546 59.2859 55.2121 57.5458 55.2121 55.8056V38.5839C55.2121 37.8638 55.7576 37.2037 56.4849 37.0237C62.9091 35.7036 68.1212 32.7633 70.6667 31.1431C71.2121 30.7831 71.8788 30.7831 72.3637 31.1431C74.9091 32.7633 80.1212 35.7036 86.5455 37.0237C87.2727 37.2037 87.8182 37.8638 87.8182 38.5839Z" fill="#22417D"/>
<path d="M71.5151 77.5877C71.0909 77.5877 70.6667 77.4677 70.303 77.2277L61.7576 71.1071C58.4242 68.7069 55.9394 65.2865 54.7273 61.3861C54.1818 59.5859 53.8788 57.7258 53.8788 55.8056V38.5838C53.8788 37.2037 54.8485 36.0636 56.2424 35.7636C62.6667 34.4434 67.9394 31.3231 69.9394 30.063C70.9091 29.4629 72.1212 29.4629 73.0909 30.063C75.0909 31.3231 80.3636 34.4434 86.7879 35.7636C88.1212 36.0636 89.1515 37.2637 89.1515 38.5838V55.8056C89.1515 57.6658 88.8485 59.5859 88.303 61.3861C87.0909 65.2865 84.6061 68.7069 81.2727 71.1071L72.7273 77.2277C72.3636 77.4677 71.9394 77.5877 71.5151 77.5877ZM71.5151 29.883C71.0303 29.883 70.5454 30.003 70.1212 30.303C68.1212 31.5631 62.7879 34.7435 56.303 36.0636C55.0909 36.3036 54.1818 37.3837 54.1818 38.5838V55.8056C54.1818 57.6658 54.4848 59.5259 55.0303 61.2661C56.2424 65.1065 58.6667 68.4668 61.9394 70.8671L70.4848 76.9877C71.0909 77.4077 71.9394 77.4077 72.5454 76.9877L81.0909 70.8671C84.3636 68.5268 86.7879 65.1065 88 61.2661C88.5454 59.4659 88.8485 57.6658 88.8485 55.8056V38.5838C88.8485 37.3837 87.9394 36.3036 86.7273 36.0636C80.2424 34.6835 74.9091 31.5631 72.9091 30.303C72.4848 30.003 72 29.883 71.5151 29.883ZM71.5151 76.4476C71.3333 76.4476 71.1515 76.3876 71.0303 76.2676L62.4242 70.147C59.3333 67.9268 56.9697 64.6865 55.8182 61.0261C55.2727 59.3459 55.0303 57.6057 55.0303 55.8056V38.5838C55.0303 37.7438 55.6364 37.0837 56.4242 36.9037C62.7879 35.5835 68 32.6433 70.5455 31.0231C71.0909 30.6631 71.8788 30.6631 72.4242 31.0231C74.9697 32.6433 80.1818 35.5835 86.5454 36.9037C87.3939 37.0837 87.9394 37.7438 87.9394 38.5838V55.8056C87.9394 57.5457 87.697 59.3459 87.1515 61.0261C86 64.6865 83.697 67.9268 80.5454 70.147L72 76.2676C71.8788 76.3876 71.697 76.4476 71.5151 76.4476ZM71.5151 31.0831C71.2727 31.0831 70.9697 31.1431 70.7273 31.3231C68.1818 32.9433 62.9697 35.8836 56.5455 37.2637C55.8788 37.3837 55.3939 37.9838 55.3939 38.6439V55.8056C55.3939 57.5457 55.6364 59.2859 56.1818 60.9061C57.2727 64.5064 59.5758 67.6868 62.6667 69.847L71.2121 75.9676C71.3939 76.0876 71.697 76.0876 71.8788 75.9676L80.4242 69.847C83.5151 67.6268 85.7576 64.4464 86.9091 60.9061C87.4545 59.2259 87.697 57.5457 87.697 55.8056V38.5838C87.697 37.9238 87.2121 37.3237 86.5454 37.2037C80.1212 35.8836 74.9091 32.8833 72.3636 31.2631C72.0606 31.1431 71.7576 31.0831 71.5151 31.0831Z" fill="#22417D"/>
<path d="M77.2727 44.2844L68.2424 54.5454L65.2727 52.1452C63.9394 51.0651 62 51.3051 60.9697 52.5652C59.8788 53.8854 60.1212 55.8056 61.3939 56.8257L68.9697 62.8863L81.9394 48.2448C83.0303 46.9847 82.9091 45.0645 81.6364 43.9844C80.303 42.9043 78.3636 43.0243 77.2727 44.2844Z" fill="#EBECE9"/>
<path d="M83.2121 46.0846C83.1515 45.1245 82.7273 44.2244 81.9394 43.6244C80.4243 42.3042 78.1212 42.4842 76.7879 43.9844L68.1212 53.7654L65.5758 51.7252C64 50.465 61.697 50.7051 60.4242 52.2652C59.8182 52.9853 59.5152 53.9454 59.6364 54.9055C59.7576 55.8656 60.2424 56.7057 60.9697 57.3657L68.9697 63.7864L82.303 48.7249C82.9697 47.9448 83.3333 47.0447 83.2121 46.0846ZM61.7576 56.4056C61.2121 55.9856 60.9091 55.3855 60.8485 54.7855C60.7879 54.1254 60.9697 53.5253 61.3939 52.9853C61.8788 52.3852 62.5455 52.0852 63.3333 52.0852C63.8788 52.0852 64.4849 52.2652 64.9091 52.6253L68.303 55.3255L77.7576 44.6445C78.6667 43.6244 80.2424 43.5043 81.2727 44.4044C81.7576 44.8245 82.0606 45.4245 82.1212 46.0846C82.1818 46.7447 81.9394 47.3447 81.5152 47.8848L68.9091 62.1062L61.7576 56.4056Z" fill="#22417D"/>
<path d="M0.84848 88.6289C0.84848 93.9094 10.7273 98.1698 22.9091 98.1698C35.0909 98.1698 44.9697 93.9094 44.9697 88.6289V47.3447C44.9697 52.6253 35.0909 56.8857 22.9091 56.8857C10.7273 56.8857 0.84848 52.6253 0.84848 47.3447V88.6289Z" fill="#EBECE9"/>
<path d="M44.9697 47.3447V88.6289C44.9697 93.9094 35.0909 98.1698 22.9091 98.1698C12.6667 98.1698 4.06062 95.1695 1.57578 91.0891C6.90911 93.4893 12.6667 94.6895 18.5455 94.5094C30.7273 94.5094 40.6061 90.249 40.6061 84.9685V53.0453C43.3334 51.4851 44.9697 49.4449 44.9697 47.3447Z" fill="#C1C1C1"/>
<path d="M22.9091 56.8857C35.0928 56.8857 44.9697 52.614 44.9697 47.3447C44.9697 42.0754 35.0928 37.8038 22.9091 37.8038C10.7253 37.8038 0.84848 42.0754 0.84848 47.3447C0.84848 52.614 10.7253 56.8857 22.9091 56.8857Z" fill="#EBECE9"/>
<path d="M22.9091 57.7258C10.0606 57.7258 0 53.1653 0 47.3447C0 41.5241 10.0606 36.9637 22.9091 36.9637C35.7576 36.9637 45.8182 41.5241 45.8182 47.3447C45.8182 53.1653 35.7576 57.7258 22.9091 57.7258ZM22.9091 38.6439C11.3939 38.6439 1.69697 42.6043 1.69697 47.3447C1.69697 52.0852 11.3939 56.0456 22.9091 56.0456C34.4242 56.0456 44.1212 52.0852 44.1212 47.3447C44.1212 42.6043 34.4242 38.6439 22.9091 38.6439Z" fill="#244583"/>
<path d="M22.9091 71.4672C10.0606 71.4672 0 66.9067 0 61.0861C0 60.6061 0.363636 60.246 0.848485 60.246C1.33333 60.246 1.69697 60.6061 1.69697 61.0861C1.69697 65.8266 11.3939 69.787 22.9091 69.787C34.4242 69.787 44.1212 65.8266 44.1212 61.0861C44.1212 60.6061 44.4848 60.246 44.9697 60.246C45.4545 60.246 45.8182 60.6061 45.8182 61.0861C45.8788 66.9067 35.7576 71.4672 22.9091 71.4672Z" fill="#22417D"/>
<path d="M22.9091 85.2686C10.0606 85.2686 0 80.7081 0 74.8875C0 74.4075 0.363636 74.0474 0.848485 74.0474C1.33333 74.0474 1.69697 74.4075 1.69697 74.8875C1.69697 79.628 11.3939 83.5884 22.9091 83.5884C34.4242 83.5884 44.1212 79.628 44.1212 74.8875C44.1212 74.4075 44.4848 74.0474 44.9697 74.0474C45.4545 74.0474 45.8182 74.4075 45.8182 74.8875C45.8788 80.7081 35.7576 85.2686 22.9091 85.2686Z" fill="#22417D"/>
<path d="M0.848485 39.3039C0.363636 39.2439 0 38.8839 0 38.4038C0 38.1638 0.121212 37.8638 0.363637 37.7438C0.848485 37.3837 1.33333 37.0837 1.87879 36.7237C2.30303 36.4837 2.78788 36.6037 3.0303 37.0237C3.27273 37.4438 3.15152 37.9238 2.72727 38.1638C2.24243 38.4639 1.75758 38.7639 1.33333 39.0639C1.21212 39.2439 1.0303 39.3039 0.848485 39.3039Z" fill="#244583"/>
<path d="M6.48484 36.3036C5.99999 36.3036 5.63635 35.9436 5.63635 35.4635C5.63635 35.1035 5.87878 34.8035 6.18181 34.6835C10.9091 32.9433 15.8788 32.0432 20.8485 31.9232C21.3333 31.9232 21.697 32.2832 21.7576 32.7633C21.7576 33.2433 21.3939 33.6034 20.9091 33.6634C16.0606 33.7834 11.3333 34.6835 6.78787 36.3636C6.66666 36.3036 6.60605 36.3036 6.48484 36.3036Z" fill="#244583"/>
<path d="M22.9091 99.0099C10.0606 99.0099 0 94.4494 0 88.6288V47.3447C0 46.8647 0.363636 46.5046 0.848485 46.5046C1.33333 46.5046 1.69697 46.8647 1.69697 47.3447C1.69697 52.0852 11.3939 56.0456 22.9091 56.0456C34.4242 56.0456 44.1212 52.0852 44.1212 47.3447C44.1212 46.8647 44.4848 46.5046 44.9697 46.5046C45.4545 46.5046 45.8182 46.8647 45.8182 47.3447V88.6288C45.8788 94.4494 35.7576 99.0099 22.9091 99.0099ZM1.69697 51.3651V88.6288C1.69697 93.3693 11.3939 97.3297 22.9091 97.3297C34.4242 97.3297 44.1212 93.3693 44.1212 88.6288V51.3651C40.7273 55.1455 32.6061 57.7258 22.9091 57.7258C13.2121 57.7258 5.09091 55.1455 1.69697 51.3651Z" fill="#244583"/>
<path d="M17.5757 65.3465C17.3939 65.2865 17.2727 65.2265 17.0909 65.1665C16.7273 65.0465 16.303 65.2265 16.1212 65.5866C16 65.9466 16.1818 66.3666 16.5454 66.4866C16.5454 66.4866 16.5454 66.4866 16.606 66.4866C16.8485 66.5467 16.9091 66.6067 17.1515 66.6667C17.5151 66.8467 17.9394 66.6667 18.0606 66.3066C18.2424 65.9466 18.0606 65.5265 17.697 65.4065C17.6363 65.4065 17.5757 65.4065 17.5757 65.3465Z" fill="white"/>
<path d="M29.5151 65.2265C26.606 66.3666 23.3939 66.6667 20.303 66.0066C19.9394 65.9466 19.5151 66.1866 19.4545 66.5467C19.3939 66.9067 19.6363 67.2667 20.0606 67.3267C20.0606 67.3267 20.0606 67.3267 20.1212 67.3267C23.4545 67.9868 26.8485 67.6868 30 66.4866C30.3636 66.3666 30.606 66.0066 30.4848 65.5866C30.4848 65.5866 30.4848 65.5866 30.4848 65.5265C30.303 65.2265 29.9394 65.0465 29.5151 65.2265Z" fill="white"/>
<path d="M43.2727 0L42.1212 0.660066L46.7878 5.76058L40.7272 8.58086L41.6363 9.66097L48.9697 6.24062L43.2727 0Z" fill="#244583"/>
<path d="M10.4242 25.5026C10.3636 25.5026 10.303 25.5026 10.2424 25.4426C9.81815 25.3225 9.63633 24.9025 9.69694 24.5425C14.1818 9.24094 30.7878 0.540066 46.6666 5.10052C47.0909 5.22053 47.2727 5.64058 47.2121 6.00061C47.0909 6.42065 46.6666 6.60067 46.303 6.54067C31.2121 2.22023 15.4545 10.4411 11.2121 24.9625C11.0303 25.3225 10.7272 25.5026 10.4242 25.5026Z" fill="#244583"/>
<path d="M16.4848 21.6622L15.8788 20.462L10.4242 24.6625L7.99998 18.4818L6.84846 19.2619L9.75756 26.7627L16.4848 21.6622Z" fill="#244583"/>
</svg>

<svg xmlns="http://www.w3.org/2000/svg" xmlns:xlink="http://www.w3.org/1999/xlink" width="126" height="100" fill="none" xmlns:v="https://vecta.io/nano"><path d="M26.909 22.922v58.806h89.394V22.922c0-2.16-1.758-3.84-3.879-3.84H30.788c-2.121 0-3.879 1.74-3.879 3.84z" fill="#ebece9"/><use xlink:href="#B" fill="#323c6b"/><g fill="#c1c1c1"><path d="M112.364 19.082H30.788c-2.182 0-3.879 1.74-3.879 3.9v1.02h80.667c2.182 0 3.879 1.74 3.879 3.84v53.885h4.787V22.922c0-2.1-1.697-3.84-3.878-3.84z"/><path d="M18.909 81.728c.545 5.101 4.606 9.121 9.697 9.661.727.06 1.455.12 2.182.12h81.454c.728 0 1.455-.06 2.182-.12 5.152-.54 9.212-4.62 9.697-9.661H18.909z"/></g><g fill="#244583"><path d="M112.303 92.289H30.849c-.727 0-1.515-.06-2.242-.12-5.515-.6-9.879-4.921-10.424-10.381-.061-.42.242-.78.667-.84h.121 105.272a.8.8 0 0 1 .788.78v.12a11.74 11.74 0 0 1-10.424 10.381c-.788 0-1.515.06-2.303.06zm-92.485-9.781c.848 4.38 4.424 7.681 8.909 8.161.727.06 1.394.12 2.121.12h81.455c.727 0 1.394-.06 2.121-.12 4.424-.48 8.061-3.78 8.909-8.161H19.818z"/><use xlink:href="#B"/><path d="M121.151 31.683a.8.8 0 0 0 .788-.78v-3.42a.8.8 0 0 0-.788-.78.8.8 0 0 0-.787.78v3.42c0 .48.363.78.787.78zm0-6.72a.8.8 0 0 0 .788-.78v-1.26c0-5.1-4.181-9.241-9.333-9.241a.8.8 0 0 0-.788.78.8.8 0 0 0 .788.78c4.303 0 7.758 3.42 7.758 7.681v1.26a.8.8 0 0 0 .787.78zM105.939 96.85h-4.121a.8.8 0 0 1-.788-.78.8.8 0 0 1 .788-.78h4.121a.8.8 0 0 1 .788.78.8.8 0 0 1-.788.78zm-7.454 0H83.636a.8.8 0 0 1-.788-.78.8.8 0 0 1 .788-.78h14.849a.8.8 0 0 1 .788.78.8.8 0 0 1-.788.78z"/></g><path d="M32.061 55.866a1.08 1.08 0 0 1-1.091-1.08v-2.46a1.091 1.091 0 1 1 2.182 0v2.46a1.08 1.08 0 0 1-1.091 1.08zm0 16.141a1.08 1.08 0 0 1-1.091-1.08V58.386a1.091 1.091 0 1 1 2.182 0v12.481c0 .6-.485 1.14-1.091 1.14z" fill="#fff"/><path d="M70.364 31.143c-2.182 1.44-7.394 4.381-13.697 5.701-.97.18-1.697 1.08-1.697 2.04v16.862c0 1.8.242 3.54.788 5.22 1.152 3.66 3.455 6.901 6.606 9.181l8.364 6.001c.424.3 1.03.3 1.515 0l8.364-6.001c3.151-2.28 5.455-5.461 6.606-9.181.545-1.68.788-3.48.788-5.22V38.884a2.07 2.07 0 0 0-1.697-2.04c-6.303-1.32-11.454-4.26-13.697-5.701-.667-.48-1.576-.48-2.242 0z" fill="#9fefde"/><path d="M86.727 36.424c-.182-.06-.364-.06-.546-.12.303.36.485.84.485 1.38v17.342c0 1.8-.303 3.66-.848 5.401-1.212 3.78-3.697 7.081-7.03 9.421l-8.909 6.181c-.182.12-.424.24-.667.24l.909.66c.485.36 1.091.36 1.576 0l8.909-6.181c3.333-2.34 5.818-5.641 7.03-9.421.545-1.74.849-3.54.849-5.4V38.524c.061-1.02-.727-1.92-1.758-2.1z" fill="#24c4a1"/><g fill="#22417d"><path d="M86.727 35.944c-6.424-1.32-11.758-4.441-13.758-5.761-.909-.6-2.121-.6-3.03 0-2 1.26-7.333 4.38-13.758 5.761-1.273.24-2.242 1.38-2.242 2.7v17.162c0 1.86.303 3.72.849 5.52 1.212 3.84 3.697 7.261 6.97 9.661l8.545 6.121c.303.24.727.36 1.091.36s.788-.12 1.091-.36l8.545-6.121c3.273-2.34 5.758-5.821 6.97-9.661.546-1.8.849-3.66.849-5.52V38.584c.121-1.26-.788-2.4-2.121-2.64zm1.091 2.64v17.222c0 1.74-.242 3.48-.788 5.16-1.151 3.6-3.454 6.841-6.545 9.061l-8.545 6.121c-.242.18-.606.18-.849 0l-8.545-6.121c-3.091-2.22-5.394-5.46-6.545-9.061-.545-1.68-.788-3.42-.788-5.16V38.584c0-.72.545-1.38 1.273-1.56 6.424-1.32 11.636-4.26 14.182-5.881.545-.36 1.212-.36 1.697 0 2.545 1.62 7.758 4.561 14.182 5.881.727.18 1.273.84 1.273 1.56z"/><path d="M71.515 77.588a2.2 2.2 0 0 1-1.212-.36l-8.545-6.121c-3.333-2.4-5.818-5.821-7.03-9.721a19.16 19.16 0 0 1-.849-5.581V38.584c0-1.38.97-2.52 2.364-2.82 6.424-1.32 11.697-4.44 13.697-5.701.97-.6 2.182-.6 3.151 0 2 1.26 7.273 4.38 13.697 5.701 1.333.3 2.364 1.5 2.364 2.82v17.222c0 1.86-.303 3.78-.849 5.581-1.212 3.9-3.697 7.321-7.03 9.721l-8.545 6.121a2.2 2.2 0 0 1-1.212.36zm0-47.705c-.485 0-.97.12-1.394.42-2 1.26-7.333 4.44-13.818 5.761-1.212.24-2.121 1.32-2.121 2.52v17.222c0 1.86.303 3.72.848 5.461 1.212 3.84 3.636 7.201 6.909 9.601l8.545 6.121c.606.42 1.455.42 2.061 0l8.546-6.121c3.273-2.34 5.697-5.761 6.909-9.601.545-1.8.849-3.6.849-5.461V38.584c0-1.2-.909-2.28-2.121-2.52-6.485-1.38-11.818-4.501-13.818-5.761-.424-.3-.909-.42-1.394-.42zm0 46.565c-.182 0-.364-.06-.485-.18l-8.606-6.121c-3.091-2.22-5.454-5.461-6.606-9.121-.545-1.68-.788-3.42-.788-5.221V38.584c0-.84.606-1.5 1.394-1.68 6.364-1.32 11.576-4.26 14.121-5.881a1.77 1.77 0 0 1 1.879 0c2.546 1.62 7.758 4.56 14.121 5.881.849.18 1.394.84 1.394 1.68v17.222c0 1.74-.242 3.54-.788 5.221-1.151 3.66-3.454 6.901-6.606 9.121L72 76.268c-.121.12-.303.18-.485.18zm0-45.364c-.242 0-.545.06-.788.24-2.546 1.62-7.758 4.561-14.182 5.941-.667.12-1.152.72-1.152 1.38v17.162c0 1.74.242 3.48.788 5.101 1.091 3.6 3.394 6.781 6.485 8.941l8.545 6.121c.182.12.485.12.667 0l8.545-6.121c3.091-2.22 5.333-5.401 6.485-8.941a16.3 16.3 0 0 0 .788-5.101V38.584c0-.66-.485-1.26-1.152-1.38-6.424-1.32-11.636-4.32-14.182-5.941a2.4 2.4 0 0 0-.849-.18z"/></g><path d="M77.273 44.284l-9.03 10.261-2.97-2.4c-1.333-1.08-3.273-.84-4.303.42-1.091 1.32-.849 3.24.424 4.261l7.576 6.061 12.97-14.641c1.091-1.26.97-3.18-.303-4.26-1.333-1.08-3.273-.96-4.364.3z" fill="#ebece9"/><path d="M83.212 46.085c-.061-.96-.485-1.86-1.273-2.46-1.515-1.32-3.818-1.14-5.152.36l-8.667 9.781-2.545-2.04c-1.576-1.26-3.879-1.02-5.152.54a3.45 3.45 0 0 0-.788 2.64c.121.96.606 1.8 1.333 2.46l8 6.421 13.333-15.062c.667-.78 1.03-1.68.909-2.64zM61.758 56.406c-.545-.42-.848-1.02-.909-1.62-.061-.66.121-1.26.545-1.8.485-.6 1.152-.9 1.939-.9.545 0 1.152.18 1.576.54l3.394 2.7 9.455-10.681c.909-1.02 2.485-1.14 3.515-.24.485.42.788 1.02.849 1.68s-.182 1.26-.606 1.8L68.909 62.106l-7.151-5.701z" fill="#22417d"/><path d="M.848 88.629c0 5.281 9.879 9.541 22.061 9.541s22.061-4.26 22.061-9.541V47.345c0 5.281-9.879 9.541-22.061 9.541S.848 52.625.848 47.345v41.284z" fill="#ebece9"/><path d="M44.97 47.345v41.284c0 5.281-9.879 9.541-22.061 9.541-10.242 0-18.848-3-21.333-7.081 5.333 2.4 11.091 3.6 16.97 3.42 12.182 0 22.061-4.26 22.061-9.541V53.045c2.727-1.56 4.364-3.6 4.364-5.701z" fill="#c1c1c1"/><path d="M22.909 56.886c12.184 0 22.061-4.272 22.061-9.541s-9.877-9.541-22.061-9.541S.848 42.075.848 47.345s9.877 9.541 22.061 9.541z" fill="#ebece9"/><path d="M22.909 57.726C10.061 57.726 0 53.165 0 47.345s10.061-10.381 22.909-10.381 22.909 4.56 22.909 10.381-10.061 10.381-22.909 10.381zm0-19.082c-11.515 0-21.212 3.96-21.212 8.701s9.697 8.701 21.212 8.701 21.212-3.96 21.212-8.701-9.697-8.701-21.212-8.701z" fill="#244583"/><path d="M22.909 71.467C10.061 71.467 0 66.907 0 61.086c0-.48.364-.84.848-.84s.848.36.848.84c0 4.74 9.697 8.701 21.212 8.701s21.212-3.96 21.212-8.701c0-.48.364-.84.849-.84s.848.36.848.84c.061 5.821-10.061 10.381-22.909 10.381zm0 13.802C10.061 85.269 0 80.708 0 74.888c0-.48.364-.84.848-.84s.848.36.848.84c0 4.74 9.697 8.701 21.212 8.701s21.212-3.96 21.212-8.701c0-.48.364-.84.849-.84s.848.36.848.84c.061 5.821-10.061 10.381-22.909 10.381z" fill="#22417d"/><path d="M.848 39.304c-.485-.06-.848-.42-.848-.9 0-.24.121-.54.364-.66l1.515-1.02c.424-.24.909-.12 1.152.3a.8.8 0 0 1-.303 1.14l-1.394.9c-.121.18-.303.24-.485.24zm5.637-3c-.485 0-.848-.36-.848-.84 0-.36.242-.66.545-.78 4.727-1.74 9.697-2.64 14.667-2.76.485 0 .848.36.909.84 0 .48-.364.84-.849.9a43.65 43.65 0 0 0-14.121 2.7c-.121-.06-.182-.06-.303-.06zM22.909 99.01C10.061 99.01 0 94.449 0 88.629V47.345c0-.48.364-.84.848-.84s.848.36.848.84c0 4.74 9.697 8.701 21.212 8.701s21.212-3.96 21.212-8.701c0-.48.364-.84.849-.84s.848.36.848.84v41.284c.061 5.821-10.061 10.381-22.909 10.381zM1.697 51.365v37.264c0 4.74 9.697 8.701 21.212 8.701s21.212-3.96 21.212-8.701V51.365c-3.394 3.78-11.515 6.361-21.212 6.361s-17.818-2.58-21.212-6.361z" fill="#244583"/><path d="M17.576 65.347l-.485-.18c-.364-.12-.788.06-.97.42-.121.36.061.78.424.9h.061c.242.06.303.12.545.18a.65.65 0 0 0 .909-.36.64.64 0 0 0-.364-.9c-.061 0-.121 0-.121-.06zm11.939-.12c-2.909 1.14-6.121 1.44-9.212.78-.364-.06-.788.18-.849.54s.182.72.606.78h.061a17.88 17.88 0 0 0 9.879-.84c.364-.12.606-.48.485-.9v-.06c-.182-.3-.545-.48-.97-.3z" fill="#fff"/><g fill="#244583"><path d="M43.273 0l-1.151.66 4.667 5.101-6.061 2.82.909 1.08 7.333-3.42L43.273 0z"/><path d="M10.424 25.503c-.061 0-.121 0-.182-.06-.424-.12-.606-.54-.545-.9C14.182 9.241 30.788.54 46.667 5.101c.424.12.606.54.545.9-.121.42-.545.6-.909.54-15.091-4.32-30.848 3.9-35.091 18.422-.182.36-.485.54-.788.54z"/><path d="M16.485 21.662l-.606-1.2-5.455 4.201L8 18.482l-1.152.78 2.909 7.501 6.727-5.1z"/></g><defs ><path id="B" d="M116.242 82.508H26.909a.8.8 0 0 1-.788-.78V22.922c0-2.58 2.121-4.62 4.667-4.62h81.576c2.606 0 4.666 2.1 4.666 4.621v58.806a.8.8 0 0 1-.788.78zm-88.545-1.56h87.818V22.922c0-1.74-1.394-3.12-3.151-3.12H30.788c-1.758 0-3.152 1.38-3.152 3.12l.061 58.026z"/></defs></svg>
